packages/design-system/site/assets/images/layout/img-workspace-layout.svg

<?xml version="1.0" encoding="UTF-8" standalone="no"?>
<svg width="241px" height="231px" viewBox="0 0 241 231" version="1.1" xmlns="http://www.w3.org/2000/svg" xmlns:xlink="http://www.w3.org/1999/xlink" xmlns:sketch="http://www.bohemiancoding.com/sketch/ns">
    <!-- Generator: Sketch 3.3.3 (12081) - http://www.bohemiancoding.com/sketch -->
    <title>record copy 2</title>
    <desc>Created with Sketch.</desc>
    <defs></defs>
    <g id="Page-1" stroke="none" stroke-width="1" fill="none" fill-rule="evenodd" sketch:type="MSPage">
        <g id="layouts" sketch:type="MSArtboardGroup" transform="translate(-838.000000, -1176.000000)">
            <g id="record-copy-2" sketch:type="MSLayerGroup" transform="translate(838.000000, 1176.000000)">
                <rect id="bkgd" stroke="#E1E6EF" fill="#FFFFFF" sketch:type="MSShapeGroup" x="0" y="9.77379984" width="241" height="220.490531"></rect>
                <g id="Group-Copy-7" transform="translate(21.019531, 96.259058)" fill="#E1E6EF" sketch:type="MSShapeGroup">
                    <rect id="Rectangle-232-Copy-14" x="8.10797003" y="1.98194823" width="57.2250744" height="1.08106267" rx="4"></rect>
                    <rect id="Rectangle-232-Copy-66" x="121.259196" y="1.98194823" width="10.9195567" height="1.08106267" rx="4"></rect>
                    <rect id="Rectangle-232-Copy-15" x="8.10797003" y="7.02690736" width="102.900134" height="1.08106267" rx="4"></rect>
                    <rect id="Rectangle-232-Copy-16" x="8.10797003" y="9.90974114" width="84.5251099" height="1.08106267" rx="4"></rect>
                    <rect id="Rectangle-232-Copy-17" x="8.10797003" y="12.7925749" width="93.4501216" height="1.08106267" rx="4"></rect>
                    <g id="event-icon-copy">
                        <rect id="Rectangle-48" x="0" y="0" width="5.04495913" height="5.04495913" rx="4"></rect>
                    </g>
                    <rect id="Rectangle-278" x="2.16212534" y="4.86478202" width="0.540531335" height="12.4322207"></rect>
                </g>
                <g id="Group-Copy-8" transform="translate(21.019531, 113.259058)" fill="#E1E6EF" sketch:type="MSShapeGroup">
                    <rect id="Rectangle-232-Copy-14" x="8.10797003" y="1.98194823" width="57.2250744" height="1.08106267" rx="4"></rect>
                    <rect id="Rectangle-232-Copy-66" x="121.259196" y="1.98194823" width="10.9195567" height="1.08106267" rx="4"></rect>
                    <rect id="Rectangle-232-Copy-15" x="8.10797003" y="7.02690736" width="102.900134" height="1.08106267" rx="4"></rect>
                    <rect id="Rectangle-232-Copy-16" x="8.10797003" y="9.90974114" width="84.5251099" height="1.08106267" rx="4"></rect>
                    <rect id="Rectangle-232-Copy-17" x="8.10797003" y="12.7925749" width="93.4501216" height="1.08106267" rx="4"></rect>
                    <g id="event-icon-copy">
                        <rect id="Rectangle-48" x="0" y="0" width="5.04495913" height="5.04495913" rx="4"></rect>
                    </g>
                    <rect id="Rectangle-278" x="2.16212534" y="4.86478202" width="0.540531335" height="12.4322207"></rect>
                </g>
                <g id="Group-Copy-9" transform="translate(21.019531, 130.259058)" fill="#E1E6EF" sketch:type="MSShapeGroup">
                    <rect id="Rectangle-232-Copy-14" x="8.10797003" y="1.98194823" width="57.2250744" height="1.08106267" rx="4"></rect>
                    <rect id="Rectangle-232-Copy-66" x="121.259196" y="1.98194823" width="10.9195567" height="1.08106267" rx="4"></rect>
                    <rect id="Rectangle-232-Copy-15" x="8.10797003" y="7.02690736" width="102.900134" height="1.08106267" rx="4"></rect>
                    <rect id="Rectangle-232-Copy-16" x="8.10797003" y="9.90974114" width="84.5251099" height="1.08106267" rx="4"></rect>
                    <rect id="Rectangle-232-Copy-17" x="8.10797003" y="12.7925749" width="93.4501216" height="1.08106267" rx="4"></rect>
                    <g id="event-icon-copy">
                        <rect id="Rectangle-48" x="0" y="0" width="5.04495913" height="5.04495913" rx="4"></rect>
                    </g>
                    <rect id="Rectangle-278" x="2.16212534" y="4.86478202" width="0.540531335" height="12.4322207"></rect>
                </g>
                <g id="Group-Copy-10" transform="translate(21.019531, 147.259058)" fill="#E1E6EF" sketch:type="MSShapeGroup">
                    <rect id="Rectangle-232-Copy-14" x="8.10797003" y="1.98194823" width="57.2250744" height="1.08106267" rx="4"></rect>
                    <rect id="Rectangle-232-Copy-66" x="121.259196" y="1.98194823" width="10.9195567" height="1.08106267" rx="4"></rect>
                    <rect id="Rectangle-232-Copy-15" x="8.10797003" y="7.02690736" width="102.900134" height="1.08106267" rx="4"></rect>
                    <rect id="Rectangle-232-Copy-16" x="8.10797003" y="9.90974114" width="84.5251099" height="1.08106267" rx="4"></rect>
                    <rect id="Rectangle-232-Copy-17" x="8.10797003" y="12.7925749" width="93.4501216" height="1.08106267" rx="4"></rect>
                    <g id="event-icon-copy">
                        <rect id="Rectangle-48" x="0" y="0" width="5.04495913" height="5.04495913" rx="4"></rect>
                    </g>
                    <rect id="Rectangle-278" x="2.16212534" y="4.86478202" width="0.540531335" height="12.4322207"></rect>
                </g>
                <g id="Group-Copy-12" transform="translate(21.019531, 164.259058)" fill="#E1E6EF" sketch:type="MSShapeGroup">
                    <rect id="Rectangle-232-Copy-14" x="8.10797003" y="1.98194823" width="57.2250744" height="1.08106267" rx="4"></rect>
                    <rect id="Rectangle-232-Copy-66" x="121.259196" y="1.98194823" width="10.9195567" height="1.08106267" rx="4"></rect>
                    <rect id="Rectangle-232-Copy-15" x="8.10797003" y="7.02690736" width="102.900134" height="1.08106267" rx="4"></rect>
                    <rect id="Rectangle-232-Copy-16" x="8.10797003" y="9.90974114" width="84.5251099" height="1.08106267" rx="4"></rect>
                    <rect id="Rectangle-232-Copy-17" x="8.10797003" y="12.7925749" width="93.4501216" height="1.08106267" rx="4"></rect>
                    <g id="event-icon-copy">
                        <rect id="Rectangle-48" x="0" y="0" width="5.04495913" height="5.04495913" rx="4"></rect>
                    </g>
                    <rect id="Rectangle-278" x="2.16212534" y="4.86478202" width="0.540531335" height="12.4322207"></rect>
                </g>
                <g id="Group-Copy-13" transform="translate(21.019531, 181.259058)" fill="#E1E6EF" sketch:type="MSShapeGroup">
                    <rect id="Rectangle-232-Copy-14" x="8.10797003" y="1.98194823" width="57.2250744" height="1.08106267" rx="4"></rect>
                    <rect id="Rectangle-232-Copy-66" x="121.259196" y="1.98194823" width="10.9195567" height="1.08106267" rx="4"></rect>
                    <rect id="Rectangle-232-Copy-15" x="8.10797003" y="7.02690736" width="102.900134" height="1.08106267" rx="4"></rect>
                    <rect id="Rectangle-232-Copy-16" x="8.10797003" y="9.90974114" width="84.5251099" height="1.08106267" rx="4"></rect>
                    <rect id="Rectangle-232-Copy-17" x="8.10797003" y="12.7925749" width="93.4501216" height="1.08106267" rx="4"></rect>
                    <g id="event-icon-copy">
                        <rect id="Rectangle-48" x="0" y="0" width="5.04495913" height="5.04495913" rx="4"></rect>
                    </g>
                    <rect id="Rectangle-278" x="2.16212534" y="4.86478202" width="0.540531335" height="12.4322207"></rect>
                </g>
                <g id="Group-Copy-14" transform="translate(21.019531, 198.259058)" fill="#E1E6EF" sketch:type="MSShapeGroup">
                    <rect id="Rectangle-232-Copy-14" x="8.10797003" y="1.98194823" width="57.2250744" height="1.08106267" rx="4"></rect>
                    <rect id="Rectangle-232-Copy-66" x="121.259196" y="1.98194823" width="10.9195567" height="1.08106267" rx="4"></rect>
                    <rect id="Rectangle-232-Copy-15" x="8.10797003" y="7.02690736" width="102.900134" height="1.08106267" rx="4"></rect>
                    <rect id="Rectangle-232-Copy-16" x="8.10797003" y="9.90974114" width="84.5251099" height="1.08106267" rx="4"></rect>
                    <rect id="Rectangle-232-Copy-17" x="8.10797003" y="12.7925749" width="93.4501216" height="1.08106267" rx="4"></rect>
                    <g id="event-icon-copy">
                        <rect id="Rectangle-48" x="0" y="0" width="5.04495913" height="5.04495913" rx="4"></rect>
                    </g>
                    <rect id="Rectangle-278" x="2.16212534" y="4.86478202" width="0.540531335" height="12.4322207"></rect>
                </g>
                <g id="Group-Copy-15" transform="translate(21.019531, 215.259058)" fill="#E1E6EF" sketch:type="MSShapeGroup">
                    <rect id="Rectangle-232-Copy-14" x="8.10797003" y="1.98194823" width="57.2250744" height="1.08106267" rx="4"></rect>
                    <rect id="Rectangle-232-Copy-66" x="121.259196" y="1.98194823" width="10.9195567" height="1.08106267" rx="4"></rect>
                    <rect id="Rectangle-232-Copy-15" x="8.10797003" y="7.02690736" width="102.900134" height="1.08106267" rx="4"></rect>
                    <rect id="Rectangle-232-Copy-16" x="8.10797003" y="9.90974114" width="84.5251099" height="1.08106267" rx="4"></rect>
                    <g id="event-icon-copy">
                        <rect id="Rectangle-48" x="0" y="0" width="5.04495913" height="5.04495913" rx="4"></rect>
                    </g>
                    <rect id="Rectangle-278" x="2.16212534" y="4.86478202" width="0.540531335" height="9.13521798"></rect>
                </g>
                <g id="Group-Copy-11" transform="translate(21.199708, 70.313554)" sketch:type="MSShapeGroup">
                    <path d="M115.309831,9.90974114 C113.520612,9.90974114 112.070163,11.3654105 112.070163,13.1529292 L112.070163,13.1529292 C112.070163,14.9440924 113.529534,16.3961172 115.309831,16.3961172 L125.947322,16.3961172 C127.736541,16.3961172 129.186989,14.9404478 129.186989,13.1529292 L129.186989,13.1529292 C129.186989,11.3617659 127.727618,9.90974114 125.947322,9.90974114 L115.309831,9.90974114 Z" id="Rectangle-827-Copy" stroke="#E1E6EF"></path>
                    <rect id="Rectangle-473" fill="#FFFFFF" x="0" y="0" width="17.1168256" height="7.38726158"></rect>
                    <rect id="Rectangle-210-Copy" stroke="#E1E6EF" x="0" y="0" width="131.889646" height="18.7384196" rx="1"></rect>
                </g>
                <rect id="Rectangle-553" stroke="#E0E5EE" fill="#F7F9FB" sketch:type="MSShapeGroup" x="10.3180428" y="10.2993631" width="230.681957" height="47.0828025"></rect>
                <g id="Component---Top-Bar-Copy-12" sketch:type="MSShapeGroup">
                    <rect id="Background" stroke="#E1E6EF" fill="#FFFFFF" x="0" y="0" width="241" height="11.0895037"></rect>
                    <path d="M17.4249624,3.2540634 C17.724487,2.94258665 18.1414386,2.74932182 18.6026298,2.74932182 C19.2156048,2.74932182 19.7505047,3.0905399 20.0352587,3.59716498 C20.2828709,3.48673819 20.5568077,3.42528234 20.8450477,3.42528234 C21.9507134,3.42528234 22.8470948,4.32794426 22.8470948,5.44146827 C22.8470948,6.55501022 21.9507134,7.45765421 20.8450477,7.45765421 C20.7100469,7.45765421 20.5781727,7.4441289 20.4506471,7.41844157 C20.1998903,7.86499204 19.7218262,8.16672842 19.1732879,8.16672842 C18.9436806,8.16672842 18.7264359,8.11382903 18.5330001,8.01961825 C18.2787933,8.61670505 17.6863029,9.03534387 16.9959896,9.03534387 C16.2769618,9.03534387 15.6641306,8.58122354 15.4290247,7.94427834 C15.3261884,7.96596547 15.2196505,7.97739202 15.1104172,7.97739202 C14.2543582,7.97739202 13.5604151,7.27741242 13.5604151,6.41392725 C13.5604151,5.83522698 13.8721405,5.32998313 14.335488,5.05963839 C14.2400729,4.84047097 14.1871183,4.59870158 14.1871183,4.34453698 C14.1871183,3.35141334 14.9946432,2.54633455 15.9908062,2.54633455 C16.5756597,2.54633455 17.0953938,2.82390834 17.4249624,3.2540634" id="Fill-1-Copy" fill="#1AA2DD"></path>
                </g>
                <g id="Component---Left-Bar---Expanded-Copy-16" transform="translate(0.000000, 0.187958)" fill="#16325C" sketch:type="MSShapeGroup">
                    <rect id="BG" x="0" y="0" width="10.7320313" height="229.994584"></rect>
                </g>
                <path d="M163.98318,57.0002445 L163.98318,229.896503" id="Line-Copy-2" stroke="#E1E6EF" stroke-linecap="square" sketch:type="MSShapeGroup"></path>
            </g>
        </g>
    </g>
</svg>

<svg width="241" height="231" xmlns="http://www.w3.org/2000/svg"><g fill="none" fill-rule="evenodd"><path stroke="#E1E6EF" fill="#FFF" d="M0 9.774h241v220.49H0z"/><g transform="translate(21.02 96.26)" fill="#E1E6EF"><rect x="8.108" y="1.982" width="57.225" height="1.081" rx="4"/><rect x="121.259" y="1.982" width="10.92" height="1.081" rx="4"/><rect x="8.108" y="7.027" width="102.9" height="1.081" rx="4"/><rect x="8.108" y="9.91" width="84.525" height="1.081" rx="4"/><rect x="8.108" y="12.793" width="93.45" height="1.081" rx="4"/><rect width="5.045" height="5.045" rx="4"/><path d="M2.162 4.865h.54v12.432h-.54z"/></g><g transform="translate(21.02 113.26)" fill="#E1E6EF"><rect x="8.108" y="1.982" width="57.225" height="1.081" rx="4"/><rect x="121.259" y="1.982" width="10.92" height="1.081" rx="4"/><rect x="8.108" y="7.027" width="102.9" height="1.081" rx="4"/><rect x="8.108" y="9.91" width="84.525" height="1.081" rx="4"/><rect x="8.108" y="12.793" width="93.45" height="1.081" rx="4"/><rect width="5.045" height="5.045" rx="4"/><path d="M2.162 4.865h.54v12.432h-.54z"/></g><g transform="translate(21.02 130.26)" fill="#E1E6EF"><rect x="8.108" y="1.982" width="57.225" height="1.081" rx="4"/><rect x="121.259" y="1.982" width="10.92" height="1.081" rx="4"/><rect x="8.108" y="7.027" width="102.9" height="1.081" rx="4"/><rect x="8.108" y="9.91" width="84.525" height="1.081" rx="4"/><rect x="8.108" y="12.793" width="93.45" height="1.081" rx="4"/><rect width="5.045" height="5.045" rx="4"/><path d="M2.162 4.865h.54v12.432h-.54z"/></g><g transform="translate(21.02 147.26)" fill="#E1E6EF"><rect x="8.108" y="1.982" width="57.225" height="1.081" rx="4"/><rect x="121.259" y="1.982" width="10.92" height="1.081" rx="4"/><rect x="8.108" y="7.027" width="102.9" height="1.081" rx="4"/><rect x="8.108" y="9.91" width="84.525" height="1.081" rx="4"/><rect x="8.108" y="12.793" width="93.45" height="1.081" rx="4"/><rect width="5.045" height="5.045" rx="4"/><path d="M2.162 4.865h.54v12.432h-.54z"/></g><g transform="translate(21.02 164.26)" fill="#E1E6EF"><rect x="8.108" y="1.982" width="57.225" height="1.081" rx="4"/><rect x="121.259" y="1.982" width="10.92" height="1.081" rx="4"/><rect x="8.108" y="7.027" width="102.9" height="1.081" rx="4"/><rect x="8.108" y="9.91" width="84.525" height="1.081" rx="4"/><rect x="8.108" y="12.793" width="93.45" height="1.081" rx="4"/><rect width="5.045" height="5.045" rx="4"/><path d="M2.162 4.865h.54v12.432h-.54z"/></g><g transform="translate(21.02 181.26)" fill="#E1E6EF"><rect x="8.108" y="1.982" width="57.225" height="1.081" rx="4"/><rect x="121.259" y="1.982" width="10.92" height="1.081" rx="4"/><rect x="8.108" y="7.027" width="102.9" height="1.081" rx="4"/><rect x="8.108" y="9.91" width="84.525" height="1.081" rx="4"/><rect x="8.108" y="12.793" width="93.45" height="1.081" rx="4"/><rect width="5.045" height="5.045" rx="4"/><path d="M2.162 4.865h.54v12.432h-.54z"/></g><g transform="translate(21.02 198.26)" fill="#E1E6EF"><rect x="8.108" y="1.982" width="57.225" height="1.081" rx="4"/><rect x="121.259" y="1.982" width="10.92" height="1.081" rx="4"/><rect x="8.108" y="7.027" width="102.9" height="1.081" rx="4"/><rect x="8.108" y="9.91" width="84.525" height="1.081" rx="4"/><rect x="8.108" y="12.793" width="93.45" height="1.081" rx="4"/><rect width="5.045" height="5.045" rx="4"/><path d="M2.162 4.865h.54v12.432h-.54z"/></g><g transform="translate(21.02 215.26)" fill="#E1E6EF"><rect x="8.108" y="1.982" width="57.225" height="1.081" rx="4"/><rect x="121.259" y="1.982" width="10.92" height="1.081" rx="4"/><rect x="8.108" y="7.027" width="102.9" height="1.081" rx="4"/><rect x="8.108" y="9.91" width="84.525" height="1.081" rx="4"/><rect width="5.045" height="5.045" rx="4"/><path d="M2.162 4.865h.54V14h-.54z"/></g><g transform="translate(21.2 70.314)"><path d="M115.31 9.91c-1.79 0-3.24 1.455-3.24 3.243 0 1.79 1.46 3.243 3.24 3.243h10.637c1.79 0 3.24-1.456 3.24-3.243 0-1.79-1.46-3.243-3.24-3.243H115.31z" stroke="#E1E6EF"/><path fill="#FFF" d="M0 0h17.117v7.387H0z"/><rect stroke="#E1E6EF" width="131.89" height="18.738" rx="1"/></g><path stroke="#E0E5EE" fill="#F7F9FB" d="M10.318 10.3H241v47.08H10.318z"/><path stroke="#E1E6EF" fill="#FFF" d="M0 0h241v11.09H0z"/><path d="M17.425 3.254c.3-.31.716-.505 1.178-.505.613 0 1.148.34 1.432.846.248-.11.522-.172.81-.172 1.106 0 2.002.903 2.002 2.016 0 1.115-.896 2.018-2.002 2.018-.135 0-.267-.014-.394-.04-.25.447-.727.75-1.276.75-.23 0-.447-.054-.64-.148-.254.597-.847 1.015-1.537 1.015-.72 0-1.332-.454-1.567-1.09-.104.02-.21.032-.32.032-.856 0-1.55-.7-1.55-1.563 0-.58.312-1.084.775-1.354-.095-.22-.148-.46-.148-.715 0-.994.808-1.8 1.804-1.8.587 0 1.106.28 1.436.71" fill="#1AA2DD"/><path d="M0 .188h10.732v229.995H0z" fill="#16325C"/><path d="M163.983 57v172.897" stroke="#E1E6EF" stroke-linecap="square"/></g></svg>
